src/icons/solid/status/excluded.svg

<svg width="24" height="24" viewBox="0 0 24 24" fill="none" xmlns="http://www.w3.org/2000/svg">
<g clip-path="url(#clip0_4191_626)">
<path fill-rule="evenodd" clip-rule="evenodd" d="M5.88873 2.85383C7.69767 1.64514 9.82441 1 12 1C14.9174 1 17.7153 2.15893 19.7782 4.22182C21.8411 6.28472 23 9.08262 23 12C23 14.1756 22.3549 16.3023 21.1462 18.1113C19.9375 19.9202 18.2195 21.3301 16.2095 22.1627C14.1995 22.9952 11.9878 23.2131 9.85401 22.7886C7.72022 22.3642 5.76021 21.3165 4.22183 19.7782C2.68345 18.2398 1.6358 16.2798 1.21137 14.146C0.786929 12.0122 1.00477 9.80047 1.83733 7.79048C2.66989 5.78049 4.07979 4.06253 5.88873 2.85383ZM17.5 9.9375H6.5C5.35416 9.9375 5.35416 11.0833 5.35416 11.0833V12.9167C5.35416 14.0625 6.5 14.0625 6.5 14.0625H17.5C18.6458 14.0625 18.6458 12.9167 18.6458 12.9167V11.0833C18.6458 9.9375 17.5 9.9375 17.5 9.9375Z" fill="#3C3B44"/>
</g>
<defs>
<clipPath id="clip0_4191_626">
<rect width="24" height="24" fill="white"/>
</clipPath>
</defs>
</svg>

<svg xmlns="http://www.w3.org/2000/svg" width="24" height="24" fill="none" viewBox="0 0 24 24"><g clip-path="url(#a)"><path fill="currentColor" fill-rule="evenodd" d="M5.889 2.854A11 11 0 1 1 18.11 21.146 11 11 0 0 1 5.89 2.854M17.5 9.937h-11c-1.146 0-1.146 1.146-1.146 1.146v1.834c0 1.146 1.146 1.146 1.146 1.146h11c1.146 0 1.146-1.146 1.146-1.146v-1.834c0-1.146-1.146-1.146-1.146-1.146" clip-rule="evenodd"/></g><defs><clipPath id="a"><path fill="currentColor" d="M0 0h24v24H0z"/></clipPath></defs></svg>
